!!!!SEGMENT: Gom2021-Gaude_mater_ecclesia--Secundus_tomus.krn
!!!id: Gom2021
!!!SMS: Secundus tomus
!!!AGN: Motet
!!!voices: 4
!!!COM: Nicolas Gombert
!!!OTL: Gaude mater ecclesia (Secundus tomus)
**kern	**kern	**kern	**kern
*part4	*part3	*part2	*part1
*staff4	*staff3	*staff2	*staff1
*I"Bassus	*I"Tenor	*I"Altus	*I"Superius
*I'B	*I'T	*I'A	*I'S
*clefF4	*clefGv2	*clefGv2	*clefG2
*k[]	*k[]	*k[]	*k[]
*M2/1	*M2/1	*M2/1	*M2/1
*met(C|)	*met(C|)	*met(C|)	*met(C|)
=1	=1	=1	=1
!!section: Gaude mater ecclesia
!!!OMD: Gaude mater ecclesia
0r	0r	0A	0r
=2	=2	=2	=2
0r	0r	1d	0r
.	.	1d	.
=3	=3	=3	=3
0r	0r	1.c	0e
.	.	2A	.
=4	=4	=4	=4
0r	0r	1c	1a
.	.	1d	1a
=5	=5	=5	=5
0r	0r	2.e	1.g
.	.	4d	.
.	.	2B	.
.	.	2c	2e
=6	=6	=6	=6
0r	0E	2B	2g
.	.	1A	2a
.	.	.	1b
.	.	2G	.
=7	=7	=7	=7
0r	1A	2.c	1e
.	.	4d	.
.	1A	4e	[1cc
.	.	4f	.
.	.	[2e	.
=8	=8	=8	=8
0r	1.G	2e]	2cc]
.	.	2d	2b
.	.	1e	2g
.	2E	.	[2b
=9	=9	=9	=9
0r	2G	2d	2b]
.	2A	2c	1a
.	2B	1d	.
.	2B	.	2g
=10	=10	=10	=10
0AA	1E	1c	1a
.	2r	1e	1cc
.	2D	.	.
=11	=11	=11	=11
1D	1F	2d	2b-X
.	.	1c	1a
1D	1F	.	.
.	.	2B	4g
.	.	.	4f
=12	=12	=12	=12
1.C	2.G	2.c	2.e
.	4F	4d	4d
.	2G	[1e	2c
2AA	2A	.	[2cc
=13	=13	=13	=13
2.C	2G	0e]	4cc]
.	.	.	4b
.	2c	.	1a
4D	.	.	.
2E	1B	.	.
2E	.	.	2g#i
=14	=14	=14	=14
1AA	1A	2r	[0a
.	.	2c	.
1r	1r	2d	.
.	.	[2f	.
=15	=15	=15	=15
2r	0r	2f]	0a]
2C	.	2e	.
2D	.	2d	.
[2F	.	2c	.
=16	=16	=16	=16
2F]	2r	2d	0r
2E	2G	2e	.
2D	2A	2f	.
2C	[2c	[2e	.
=17	=17	=17	=17
1G	2c]	2e]	0r
.	2B	2d	.
2.C	2A	1e	.
.	2G	.	.
4D	.	.	.
=18	=18	=18	=18
2E	2G	2r	0r
2F	1c	2c	.
1D	.	2d	.
.	2B	[2f	.
=19	=19	=19	=19
1C	1c	2f]	2r
.	.	2e	2g
1r	1r	2d	2a
.	.	2c	[2cc
=20	=20	=20	=20
0r	2r	2.d	2cc]
.	2G	.	2b
.	.	4e	.
.	2A	2f	2a
.	[2c	[2e	2g
=21	=21	=21	=21
0r	2c]	2e]	2a
.	2B	2d	2b
.	2A	[1e	2cc
.	2G	.	[2b
=22	=22	=22	=22
2r	1c	1e]	2b]
2C	.	.	1a
2D	1B	1r	.
2E	.	.	2g#i
=23	=23	=23	=23
1.F	1A	1c	1a
.	2r	2d	1r
2E	2G	2e	.
=24	=24	=24	=24
2D	2A	1.f	1.r
2D	2B	.	.
1C	[1c	.	.
.	.	2e	2g
=25	=25	=25	=25
0r	2c]	2d	2a
.	2B	2d	2b
.	2A	2c	[1cc
.	2A	[2e	.
=26	=26	=26	=26
0r	1G	4e]	2cc]
.	.	4d	.
.	.	1g	2b
.	2r	.	1a
.	2A	2f	.
=27	=27	=27	=27
1E	2B	2g	1g
.	2c	2G	.
2F	2.d	2A	1r
2G	.	2B	.
.	4e	.	.
=28	=28	=28	=28
1.A	2f	1.c	2r
.	2e	.	2e
.	2c	.	2f
2G	[2e	2B	2g
=29	=29	=29	=29
2F	2e]	2c	1.a
2F	2d	2A	.
1E	2.e	2B	.
.	.	2B	2g
.	4d	.	.
=30	=30	=30	=30
2r	2c	1A	2e
2AA	4B	.	1f
.	4A	.	.
2BB	2.G	1r	.
2C	.	.	[2e
.	4A	.	.
=31	=31	=31	=31
1.D	1F	0r	2e]
.	.	.	2d
.	2G	.	1e
2C	[2A	.	.
=32	=32	=32	=32
2BB	2A]	1.d	1r
2BB	2G#i	.	.
1AA	1A	.	[1a
.	.	2c	.
=33	=33	=33	=33
0r	0r	2d	2a]
.	.	2e	2g
.	.	2c	2a
.	.	2d	2b
=34	=34	=34	=34
0r	0r	2B	2g
.	.	2A	2a
.	.	2r	2f
.	.	2A	2e
=35	=35	=35	=35
0r	0r	2B	2r
.	.	2c	2e
.	.	1d	2f
.	.	.	2g
=36	=36	=36	=36
0r	0r	2r	1a
.	.	2d	.
.	.	2e	2r
.	.	2f	2a
=37	=37	=37	=37
0r	1r	2g	2b
.	.	4f	2cc
.	.	4e	.
.	[1d	2d	2dd
.	.	[2f	4cc
.	.	.	4b
=38	=38	=38	=38
0r	2d]	4f]	2a
.	.	4g	.
.	2c	1a	2cc
.	2d	.	1b
.	2e	2g	.
=39	=39	=39	=39
1r	2c	2e	1a
.	2d	2f	.
[1D	2B	2.d	1r
.	2A	.	.
.	.	4c	.
=40	=40	=40	=40
2D]	2r	2A	0r
2C	1A	2c	.
2D	.	1B	.
2E	2G	.	.
=41	=41	=41	=41
2C	2A	0r	0r
2D	2B	.	.
2BB	2G	.	.
2AA	2A	.	.
=42	=42	=42	=42
2r	2F	0r	0r
2AA	2E	.	.
2BB	2r	.	.
2C	2E	.	.
=43	=43	=43	=43
1D	2F	0r	0r
.	2G	.	.
2r	1A	.	.
2D	.	.	.
=44	=44	=44	=44
2E	2r	0r	0r
2F	2A	.	.
2G	2B	.	.
4F	2c	.	.
4E	.	.	.
=45	=45	=45	=45
2D	2.d	1r	0r
2.F	.	.	.
.	4c	.	.
.	2A	1A	.
4E	.	.	.
[2A	2c	.	.
=46	=46	=46	=46
2A]	1B	1.d	1r
2G#i	.	.	.
1A	1A	.	1e
.	.	2c	.
=47	=47	=47	=47
0r	1r	2A	1.a
.	.	2c	.
.	1E	2B	.
.	.	2B	2g
=48	=48	=48	=48
0r	1.A	2A	2.e
.	.	1c	.
.	.	.	4d
.	.	.	4e
.	.	.	4f
.	2G	2B	[2g
=49	=49	=49	=49
1E	2E	2c	4g]
.	.	.	4f
.	2G	2B	1e
[1A	2F	2c	.
.	2F	4A	2d
.	.	4B	.
=50	=50	=50	=50
2A]	1E	4c	2.e
.	.	4d	.
2G	.	2.e	.
.	.	.	4f
2E	1r	.	4g
.	.	4d	4a
2G	.	2B	[2b
=51	=51	=51	=51
2F	1A	2c	2b]
2F	.	4B	1a
.	.	4A	.
1E	[1e	1B	.
.	.	.	2g
=52	=52	=52	=52
0r	2e]	1.r	2.f
.	2d	.	.
.	.	.	4e
.	2c	.	2d
.	2d	2D	2f
=53	=53	=53	=53
1AA	2c	1.A	0e
.	2c	.	.
[1E	1B	.	.
.	.	2G	.
=54	=54	=54	=54
2E]	2G	2E	0r
2D	2A	2F	.
2BB	2B	2G	.
2D	[2A	[2F	.
=55	=55	=55	=55
1C	4A]	4F]	2r
.	4G	4E	.
.	2E	1A	2a
1BB	2F	.	[1dd
.	2D	2G#i	.
=56	=56	=56	=56
0AA	1E	2.A	2dd]
.	.	.	2cc
.	.	4B	.
.	2r	4c	2a
.	.	4d	.
.	[2A	4e	2cc
.	.	4c	.
=57	=57	=57	=57
0r	2A]	1d	1b
.	2G	.	.
.	2F	2r	2a
.	2D	[2d	2f
=58	=58	=58	=58
0r	2.E	2d]	2.g
.	.	2c	.
.	4F	.	8fL
.	.	.	8eJ
.	2G	2B	2d
.	2E	2G	[2e
=59	=59	=59	=59
0r	1F	1A	2e]
.	.	.	2d
.	2E	2B	1e
.	[2A	[2c	.
=60	=60	=60	=60
0r	4A]	2c]	2r
.	4G	.	.
.	2F	2A	1a
.	1E	1B	.
.	.	.	2g
=61	=61	=61	=61
0r	2F	2A	2f
.	1G	1B	2d
.	.	.	2.e
.	2A	2c	.
.	.	.	4f
=62	=62	=62	=62
1.r	2B	2d	2g
.	2c	1e	2e
.	2.A	.	1f
[2D	.	2d	.
.	8GL	.	.
.	8AJ	.	.
=63	=63	=63	=63
2D]	1G	2B	1e
2C	.	2c	.
2BB	1B	1d	2r
2GG	.	.	[2g
=64	=64	=64	=64
2.AA	1A	1c	2g]
.	.	.	2f
4BB	.	.	.
2C	2G	1r	2e
2AA	2A	.	[2f
=65	=65	=65	=65
1BB-X	1D	1r	4f]
.	.	.	4e
.	.	.	1d
1AA	1E	[1A	.
.	.	.	2c#i
=66	=66	=66	=66
1D	0r	2A]	1d
.	.	1B	.
1E	.	.	1r
.	.	[2c	.
=67	=67	=67	=67
1F	1A	2c]	0r
.	.	2A	.
2D	1B	2d	.
2G	.	[2e	.
=68	=68	=68	=68
1A	1c	2e]	0r
.	.	1c	.
1F	1A	.	.
.	.	2A	.
=69	=69	=69	=69
2D	1d	2A	1.r
1G	.	1B-X	.
.	1e	.	.
2A	.	2c	2e
=70	=70	=70	=70
1D	2.d	2B	1f
.	.	1A	.
.	4c	.	.
1E	1B	.	[1e
.	.	2G#i	.
=71	=71	=71	=71
1AA	2c	1A	2e]
.	2A	.	2c
1r	2B	1r	2d
.	[2A	.	2e
=72	=72	=72	=72
0r	2A]	1r	2A
.	2F	.	1d
.	2G	1e	.
.	2A	.	2c
=73	=73	=73	=73
0A	1D	1f	4d
.	.	.	4e
.	.	.	4f
.	.	.	4g
.	1r	2e	4a
.	.	.	4b
.	.	2c	[2a
=74	=74	=74	=74
1B	2r	1d	2a]
.	1d	.	2g#i
[1A	.	1e	1a
.	[2c	.	.
=75	=75	=75	=75
2A]	2c]	2A	1r
2F	4B	1d	.
.	4A	.	.
2G	2B	.	1e
2A	2c	2c	.
=76	=76	=76	=76
1D	2A	1.d	0f
.	1B	.	.
1r	.	.	.
.	[2A	2c	.
=77	=77	=77	=77
1E	2A]	1B	1e
.	2G	.	.
1F	2A	1A	2.c
.	[2c	.	.
.	.	.	4d
=78	=78	=78	=78
1.E	2c]	2r	4e
.	.	.	4f
.	2B	2e	4g
.	.	.	4a
.	1e	1g	4b
.	.	.	4g
2C	.	.	2cc
=79	=79	=79	=79
1D	2.d	1f	2b
.	.	.	1a
.	4c	.	.
1E	1B	1e	.
.	.	.	2g#i
=80	=80	=80	=80
1AA	2A	2c	[0al
.	2E	2c	.
[1D	1F	2d	.
.	.	[2f	.
=81	=81	=81	=81
2D]	2D	2f]	0a_
2C	2E	2e	.
1D	1F	1d	.
=82	=82	=82	=82
0AAl	0El	0cl	0a]
=83||	=83||	=83||	=83||
*M2/1	*M2/1	*M2/1	*M2/1
*met(C|)	*met(C|)	*met(C|)	*met(C|)
!!section: Gaude quia convertisti
!!!OMD: Gaude quia convertisti
0r	0r	0e	0r
=84	=84	=84	=84
0A	0r	0e	0r
=85	=85	=85	=85
0A	0r	1f	0r
.	.	2e	.
.	.	[2f	.
=86	=86	=86	=86
1B	0r	2f]	0r
.	.	4e	.
.	.	4d	.
2A	.	2e	.
[2B	.	2d	.
=87	=87	=87	=87
2B]	0r	2r	0r
4A	.	2B	.
4G	.	.	.
2A	.	2c	.
2G	.	2d	.
=88	=88	=88	=88
2r	0r	1e	0r
2E	.	.	.
2F	.	2d	.
2G	.	[2e	.
=89	=89	=89	=89
1.A	0r	2e]	0r
.	.	4d	.
.	.	4c	.
.	.	2f	.
2G	.	[2e	.
=90	=90	=90	=90
2F	0r	2e]	0a
2D	.	1d	.
1A	.	.	.
.	.	2c	.
=91	=91	=91	=91
0D	0d	2.f	0a
.	.	4e	.
.	.	4f	.
.	.	4e	.
.	.	4d	.
.	.	4c	.
=92	=92	=92	=92
1G	0d	2B	1b
.	.	2G	.
2F	.	2A	2a
[2G	.	2G	[2b
=93	=93	=93	=93
2G]	1e	2B	2b]
4F	.	2c	4a
4E	.	.	4g
2F	2d	2A	2a
2E	[2e	2B	2g
=94	=94	=94	=94
1C	2e]	1c	2r
.	4d	.	2e
.	4c	.	.
1r	2d	1r	2f
.	2c	.	2g
=95	=95	=95	=95
0r	2r	0r	1a
.	2A	.	.
.	2B	.	2g
.	2c	.	[2a
=96	=96	=96	=96
1D	2d	0r	2a]
.	2d	.	4g
.	.	.	4f
2E	2c	.	2g
2F	[2d	.	2a
=97	=97	=97	=97
1G	2d]	2r	1d
.	4c	2d	.
.	4B	.	.
1r	2c	2e	2r
.	2d	2f	2a
=98	=98	=98	=98
0r	0G	1.g	2.b
.	.	.	4cc
.	.	.	[1dd
.	.	2d	.
=99	=99	=99	=99
0r	1r	1f	2dd]
.	.	.	2a
.	1A	1e	1cc
=100	=100	=100	=100
0r	2.B	2d	1b
.	.	1g	.
.	4c	.	.
.	[1d	.	[1a
.	.	2f	.
=101	=101	=101	=101
1D	2d]	2d	1a]
.	2A	2f	.
2.E	1c	1e	2r
.	.	.	2g
4F	.	.	.
=102	=102	=102	=102
1G	1B	1d	2.b
.	.	.	4cc
1D	1A	[1f	2dd
.	.	.	[2a
=103	=103	=103	=103
1F	2r	2f]	2a]
.	2A	2d	2f
1E	2.B	1e	1g
.	4c	.	.
=104	=104	=104	=104
1D	1.d	2A	1f
.	.	1f	.
1F	.	.	2r
.	2A	2d	2f
=105	=105	=105	=105
2E	1c	1e	2g
2C	.	.	2a
2D	1B	2r	2f
2E	.	[2e	[2g
=106	=106	=106	=106
2C	0A	2e]	2g]
2D	.	2d	2f
1AA	.	2c	[1e
.	.	2A	.
=107	=107	=107	=107
2r	1.r	1c	1e]
1A	.	.	.
.	.	1B	1r
2G	[2e	.	.
=108	=108	=108	=108
2F	2e]	0r	1.r
2D	2d	.	.
1F	2c	.	.
.	2A	.	[2a
=109	=109	=109	=109
1E	2c	0r	2a]
.	2B	.	2g
1r	2A	.	2f
.	[2B-X	.	2d
=110	=110	=110	=110
1.r	4B-]	1.d	1f
.	4c	.	.
.	2d	.	.
.	1A	.	1e
[2A	.	2c	.
=111	=111	=111	=111
2A]	1B	1d	0r
2G	.	.	.
1A	1r	2c	.
.	.	2A	.
=112	=112	=112	=112
2G	2r	1B	1.r
2E	1e	.	.
1F	.	1A	.
.	2d	.	[2a
=113	=113	=113	=113
1E	1e	0r	2a]
.	.	.	2g
1r	2d	.	2a
.	2B	.	2g
=114	=114	=114	=114
0r	1c	1.A	2.e
.	.	.	4d
.	1B	.	4e
.	.	.	4f
.	.	2G	[2g
=115	=115	=115	=115
2r	2r	1A	2g]
1D	2A	.	2f
.	2B	2G	2d
2C	[2c	2E	2e
=116	=116	=116	=116
1D	2c]	2F	2.A
.	2F	2F	.
.	.	.	4B
2C	2G	1E	4c
.	.	.	4d
2AA	[2A	.	[2e
=117	=117	=117	=117
1BB	2A]	1r	2e]
.	2D	.	1d
1AA	2E	1A	.
.	2E	.	2c#i
=118	=118	=118	=118
0D	0D	2A	1d
.	.	2B	.
.	.	2A	2r
.	.	2d	2a
=119	=119	=119	=119
0r	0r	2c	2a
.	.	2.d	2b
.	.	.	2a
.	.	4c	.
.	.	2B	2dd
=120	=120	=120	=120
0r	0r	2A	2cc
.	.	2g	2.dd
.	.	2f	.
.	.	.	4cc
.	.	[2g	2b
=121	=121	=121	=121
0r	1A	2g]	2.a
.	.	2f	.
.	.	.	4b
.	2A	2e	2cc
.	2B	2d	[2dd
=122	=122	=122	=122
0r	1A	1e	2dd]
.	.	.	2cc
.	1d	1f	[1a
=123	=123	=123	=123
1r	2c	2e	1a]
.	2.d	1f	.
1D	.	.	1r
.	4c	.	.
.	2B	4e	.
.	.	4d	.
=124	=124	=124	=124
2D	2A	2f	1.r
2E	2G	1g	.
1D	1A	.	.
.	.	2f#i	2d
=125	=125	=125	=125
1G	1B	1g	2d
.	.	.	2e
2F	2A	2r	1d
[2G	[2B	2G	.
=126	=126	=126	=126
4G]	2B]	2B	1g
4F	.	.	.
2E	4A	2c	.
.	4G	.	.
2.D	2A	2d	2f
.	2d	[2f	[2a
4E	.	.	.
=127	=127	=127	=127
2F	2c	2f]	2a]
2G	2B	2e	1g
1D	2A	1d	.
.	[2d	.	2f#i
=128	=128	=128	=128
1GG	2d]	1B	1g
.	2B	.	.
2r	2c	1r	2r
[2G	2d	.	[2b
=129	=129	=129	=129
2G]	1e	0r	2b]
2E	.	.	2g
2F	1d	.	2a
2G	.	.	2b
=130	=130	=130	=130
1A	1c	2r	1cc
.	.	1e	.
2G	1r	.	2b
[2F	.	2c	[2a
=131	=131	=131	=131
4F]	2r	2d	4a]
4E	.	.	4b
2C	1A	2e	2cc
1D	.	1f	2a
.	2F	.	[2dd
=132	=132	=132	=132
1.r	2G	1e	2dd]
.	2A	.	2cc#i
.	2B	2.d	1dd
[2D	[2A	.	.
.	.	4c	.
=133	=133	=133	=133
2D]	2A]	2A	1d
2BB	1G	2B	.
2C	.	2A	2e
2D	2F	[2d	2f
=134	=134	=134	=134
1E	1G	2d]	2e
.	.	2c	1g
1D	1r	2B	.
.	.	2A	[2f
=135	=135	=135	=135
1C	1G	1c	2f]
.	.	.	2e
1r	1B-X	[1d	[1f
=136	=136	=136	=136
1D	2A	1d]	1f]
.	1d	.	.
1E	.	1r	1r
.	2c	.	.
=137	=137	=137	=137
2D	2.B	0r	1r
1G	.	.	.
.	4A	.	.
.	4B	.	1d
.	4c	.	.
2F	[2d	.	.
=138	=138	=138	=138
2E	2d]	1r	1e
2C	1c	.	.
1D	.	1d	1d
.	2B	.	.
=139	=139	=139	=139
1C	1c	1e	1.g
1r	1r	1d	.
.	.	.	2f
=140	=140	=140	=140
0r	0r	1.g	4e
.	.	.	4f
.	.	.	4g
.	.	.	4a
.	.	.	4b
.	.	.	4cc
.	.	2f	4dd
.	.	.	4a
=141	=141	=141	=141
1E	0r	2.e	2cc
.	.	.	1b
.	.	4d	.
1F	.	2c	.
.	.	2A	[2a
=142	=142	=142	=142
1E	1B	0e	2a]
.	.	.	2g#i
[1A	1c	.	1a
=143	=143	=143	=143
2A]	1B	1r	1dd
2G	.	.	.
2A	[1e	1c	2.cc
[2c	.	.	.
.	.	.	4b
=144	=144	=144	=144
4c]	2e]	1g	2cc
4B	.	.	.
2G	2d	.	1b
2A	2c	2e	.
2D	2d	2f	[2a
=145	=145	=145	=145
1E	1B	1e	2a]
.	.	.	2g#i
1AA	1A	2r	1a
.	.	[2e	.
=146	=146	=146	=146
1r	0r	2e]	2g
.	.	2d	2f
[1A	.	2c	1e
.	.	2A	.
=147	=147	=147	=147
2A]	0r	2c	1r
2G	.	2d	.
2F	.	2A	1a
2D	.	2d	.
=148	=148	=148	=148
2F	1r	2c	2a
2G	.	2B	2g
1D	[1d	1A	2f
.	.	.	2d
=149	=149	=149	=149
1r	2d]	0r	2f
.	2c	.	2g
[1G	2B	.	1d
.	2G	.	.
=150	=150	=150	=150
2G]	2B	1r	1r
2F	2c	.	.
2E	2G	1e	[1g
2C	2c	.	.
=151	=151	=151	=151
2G	2B	2d	2g]
2A	2.A	2c	2f
1E	.	1B	2.e
.	4F	.	.
.	2G	.	.
.	.	.	4d
=152	=152	=152	=152
2AA	2E	2.A	2c
2D	2F	.	2d
.	.	4B	.
2C	2G	2c	2e
2D	2F	2B	[2d
=153	=153	=153	=153
1AA	1E	0A	2d]
.	.	.	2c#i
1D	1D	.	1d
=154	=154	=154	=154
1r	1r	1r	1r
[1C	[1G	[1c	[1e
=155	=155	=155	=155
1C]	1G]	1c]	1e]
[1C	[1c	[1e	[1g
=156	=156	=156	=156
1C]	1c]	1e]	0g_
[1G	[1B	[1d	.
=157	=157	=157	=157
2G]	2B]	2d]	1g]
4F	4A	2e	.
4E	4G	.	.
1D	1d	1f	1a
=158	=158	=158	=158
1C	1e	0g	1cc
1G	1d	.	1b
=159	=159	=159	=159
1A	1.c	2f	1.a
.	.	1e	.
1F	.	.	.
.	2A	2d	4g
.	.	.	4f
=160	=160	=160	=160
1E	2B	1e	1g
.	2.c	.	.
1AA	.	1c	1e
.	4B	.	.
.	4A	.	.
.	4G	.	.
=161	=161	=161	=161
1D	2A	2d	1f
.	2F	2A	.
1C	2G	1c	1e
.	[2A	.	.
=162	=162	=162	=162
1D	2A]	1A	1.d
.	2F	.	.
1GG	1G	1B	.
.	.	.	4c
.	.	.	4B
=163	=163	=163	=163
1AA	2E	1.A	1c
.	2.F	.	.
[1BB	.	.	[1d
.	4E	.	.
.	4D	4G	.
.	4C	4F	.
=164	=164	=164	=164
1BB]	1D	1G	1d]
[1AA	[1E	[1A	[1c#i
=165	=165	=165	=165
1AA;]	1E;]	1A;]	1c#;]
[1D	[1D	[1A	[1d
=166	=166	=166	=166
1D]	1D]	1A]	1d]
[1Dl	[1Dl	[1Al	[1dl
=167	=167	=167	=167
0D]	0D]	0A]	0d]
==	==	==	==
*-	*-	*-	*-
!!!system-decoration: s1,s2,s3,s4
!!!RDF**kern: i = editorial accidental
!!!RDF**kern: l = terminal long
!!!ENC: Janosch Umbreit
!!!END: 2026/06/12
!!!EED: Benjamin Ory
!!!EEV: 2026/06/15
!!!YEC: Copyright 2026 Benjamin Ory, All Rights Reserved
!!!ONB: Translated from MusicXML on 2026/06/15
!!muse2ps: C^@{COM}^i2I150v90,90,90,120c120z18l2770t130
